assets/sonr-icons/node.svg

<svg xmlns="http://www.w3.org/2000/svg" width="24" height="24" fill="none" viewBox="0 0 24 24"><path fill="#000" d="M5 7C5 6.448 4.552 6 4 6C3.448 6 3 6.448 3 7V17C3 17.379 3.214 17.725 3.553 17.895L11.553 21.895C11.834 22.036 12.166 22.036 12.448 21.895L20.448 17.895C20.787 17.726 21.001 17.38 21.001 17V7C21.001 6.448 20.553 6 20.001 6C19.449 6 19.001 6.448 19.001 7V16.382L13.001 19.382V11C13.001 10.448 12.553 10 12.001 10C11.449 10 11.001 10.448 11.001 11V19.382L5.001 16.382L5 7Z"/><path fill="#000" d="M11.553 2.10502C11.834 1.96402 12.166 1.96402 12.448 2.10502L20.448 6.10502C20.787 6.27502 21.001 6.62102 21.001 7.00002C21.001 7.37902 20.787 7.72502 20.448 7.89502L12.448 11.895C12.167 12.036 11.835 12.036 11.553 11.895L3.553 7.89502C3.214 7.72502 3 7.37902 3 7.00002C3 6.62102 3.214 6.27502 3.553 6.10502L11.553 2.10502ZM6.236 7.00002L12 9.88202L17.764 7.00002L12 4.11802L6.236 7.00002Z"/></svg>

<svg xmlns="http://www.w3.org/2000/svg" width="24" height="24" fill="none"><path fill="currentColor" d="M5 7a1 1 0 0 0-2 0v10c0 .379.214.725.553.895l8 4a1 1 0 0 0 .895 0l8-4a1 1 0 0 0 .553-.895V7a1 1 0 0 0-2 0v9.382l-6 3V11a1 1 0 0 0-2 0v8.382l-6-3z"/><path fill="currentColor" d="M11.553 2.105a1 1 0 0 1 .895 0l8 4a1.001 1.001 0 0 1 0 1.79l-8 4a1 1 0 0 1-.895 0l-8-4a1.001 1.001 0 0 1 0-1.79zM6.236 7 12 9.882 17.764 7 12 4.118z"/></svg>
